packages/sources/icons/src/vitamix/equalizer-line.svg

<svg width="16" height="16" viewBox="0 0 16 16" fill="none" xmlns="http://www.w3.org/2000/svg">
<path fill-rule="evenodd" clip-rule="evenodd" d="M4.11334 2.6683C4.39561 1.86833 5.1517 1.33333 6.00001 1.33333C6.84832 1.33333 7.60441 1.86833 7.88668 2.6683H14.6667V4.00163H7.88668C7.60441 4.80161 6.84832 5.3366 6.00001 5.3366C5.1517 5.3366 4.39561 4.80161 4.11334 4.00163H1.33334V2.6683H4.11334ZM10 6C9.1517 6 8.39561 6.53499 8.11334 7.33497H1.33334V8.6683H8.11334C8.39561 9.46827 9.1517 10.0033 10 10.0033C10.8483 10.0033 11.6044 9.46827 11.8867 8.6683H14.6667V7.33497H11.8867C11.6044 6.53499 10.8483 6 10 6ZM6.00001 10.6667C5.1517 10.6667 4.39561 11.2017 4.11334 12.0016H1.33334V13.335H4.11334C4.39561 14.1349 5.1517 14.6699 6.00001 14.6699C6.84832 14.6699 7.60441 14.1349 7.88668 13.335H14.6667V12.0016H7.88668C7.60441 11.2017 6.84832 10.6667 6.00001 10.6667ZM6.66668 3.33497C6.66668 3.70316 6.3682 4.00164 6.00001 4.00164C5.63182 4.00164 5.33334 3.70316 5.33334 3.33497C5.33334 2.96678 5.63182 2.6683 6.00001 2.6683C6.3682 2.6683 6.66668 2.96678 6.66668 3.33497ZM10 8.6683C10.3682 8.6683 10.6667 8.36983 10.6667 8.00164C10.6667 7.63345 10.3682 7.33497 10 7.33497C9.63182 7.33497 9.33334 7.63345 9.33334 8.00164C9.33334 8.36983 9.63182 8.6683 10 8.6683ZM6.66668 12.6683C6.66668 13.0365 6.3682 13.335 6.00001 13.335C5.63182 13.335 5.33334 13.0365 5.33334 12.6683C5.33334 12.3001 5.63182 12.0016 6.00001 12.0016C6.3682 12.0016 6.66668 12.3001 6.66668 12.6683Z" fill="#001018"/>
</svg>

<svg width="16" height="16" fill="none" xmlns="http://www.w3.org/2000/svg"><path fill-rule="evenodd" clip-rule="evenodd" d="M4.113 2.668a2 2 0 0 1 3.774 0h6.78v1.334h-6.78a2 2 0 0 1-3.774 0h-2.78V2.668h2.78zM10 6a2 2 0 0 0-1.887 1.335h-6.78v1.333h6.78a2 2 0 0 0 3.774 0h2.78V7.335h-2.78A2 2 0 0 0 10 6zm-4 4.667a2 2 0 0 0-1.887 1.335h-2.78v1.333h2.78a2 2 0 0 0 3.774 0h6.78v-1.333h-6.78A2 2 0 0 0 6 10.667zm.667-7.332a.667.667 0 1 1-1.334 0 .667.667 0 0 1 1.334 0zM10 8.668a.667.667 0 1 0 0-1.333.667.667 0 0 0 0 1.333zm-3.333 4a.667.667 0 1 1-1.334 0 .667.667 0 0 1 1.334 0z" fill="#001018"/></svg>
